X: 34
T:Polca'r Faenor
T:The Faenor Polka
M:2/4
L:1/8
Q:220
S:Cadw Twmpath Collection
R:Polka
A:Wales
Z:brian_martin12345@yahoo.com
K:G
B|dB ec|db g/f/g/b/|af g/f/e/d/|gB e/d/B|
dB ec|db g/f/g/b/|ae g/f/e/f/|ag g:||
F/G/|Ac/B/ Ae/d/|cD/E/ FG/A/|Bd/c/ Bb/a/|gB/^c/ dF/G/|
Ac/B/ Ae/d/|cD/E/ FG/A/|Bd/c/ B/A/G/F/|GG G:||
